events-list/static/images/InfoQ-workshop-event.svg

<svg fill="none" height="200" viewBox="0 0 371 200" width="371" xmlns="http://www.w3.org/2000/svg" xmlns:xlink="http://www.w3.org/1999/xlink"><clipPath id="a"><path d="m40 78h143.733v44h-143.733z"/></clipPath><path d="m0 0h371v200h-371z" fill="#f0f0f0"/><g clip-path="url(#a)"><g fill="#2b6cad"><path d="m49.9285 78.9146h-9.6223v39.3594h9.6223z"/><path d="m56.2464 89.0126v29.2614h8.8006v-17.231c0-2.1037.3749-3.5872 1.1248-4.4499.75-.8611 2.0076-1.2933 3.7731-1.2933 1.4998 0 2.595.4636 3.2886 1.3892.6937.9256 1.039 2.3776 1.039 4.354v17.231h8.8021v-17.666c0-4.1547-.7734-7.241-2.3216-9.254-1.5467-2.0146-3.9043-3.0219-7.0742-3.0219-1.7732 0-3.3731.2813-4.7979.8439-1.4233.5626-2.7012 1.4158-3.8339 2.5583v-2.7217z"/><path d="m89.5113 95.083v23.191h8.8022v-23.191h5.4615v-5.3633h-5.4615v-1.1157c0-1.1974.2577-1.9957.778-2.3949.5187-.3991 1.5885-.5987 3.2125-.5987h1.471v-6.1254c-.846-.1996-1.659-.3442-2.438-.4353-.78-.0911-1.5471-.1351-2.2971-.1351-3.4214 0-5.8837.6851-7.3866 2.0538-1.503 1.3703-2.2544 3.608-2.2544 6.71 0 .2184.0031.462.014.7354.0094.2719.0422.7072.0984 1.3059h-4.4713v5.3633z"/><path clip-rule="evenodd" d="m108.287 114.952c2.878 2.851 6.675 4.274 11.393 4.274 4.715 0 8.522-1.428 11.417-4.286 2.897-2.859 4.345-6.619 4.345-11.283 0-4.6832-1.439-8.4514-4.317-11.3099-2.876-2.8584-6.693-4.2868-11.445-4.2868-4.7 0-8.491 1.4331-11.377 4.2994-2.887 2.8679-4.331 6.633-4.331 11.2973 0 4.681 1.439 8.448 4.315 11.295zm6.511-4.939c-1.218-1.57-1.827-3.688-1.827-6.356 0-2.631.614-4.746 1.841-6.3426 1.226-1.5966 2.848-2.3948 4.868-2.3948 2.054 0 3.692.7888 4.909 2.3681 1.217 1.5777 1.824 3.7003 1.824 6.3693 0 2.649-.612 4.763-1.838 6.342-1.227 1.579-2.858 2.368-4.895 2.368-2.039 0-3.665-.784-4.882-2.354z" fill-rule="evenodd"/></g><path d="m158.78 110.978c3.118 0 5.551-1.083 7.299-3.251 1.747-2.169 2.62-5.196 2.62-9.0785 0-3.883-.878-6.919-2.636-9.1049-1.757-2.1874-4.183-3.2811-7.283-3.2811-3.079 0-5.503 1.1031-7.268 3.3078-1.767 2.2047-2.65 5.2313-2.65 9.0782 0 3.8465.878 6.8635 2.634 9.0495 1.758 2.188 4.186 3.28 7.284 3.28zm10.4 5.798c-1.454.799-3.059 1.407-4.815 1.825-1.756.416-3.617.625-5.58.625-6.025 0-10.844-1.868-14.461-5.607-3.615-3.738-5.425-8.729-5.425-14.9705 0-3.4116.552-6.4649 1.658-9.1599 1.105-2.695 2.751-4.9955 4.942-6.9001 1.756-1.5243 3.743-2.6683 5.961-3.4304 2.219-.7622 4.658-1.1425 7.32-1.1425 6.004 0 10.819 1.8779 14.444 5.6352 3.624 3.7557 5.436 8.7544 5.436 14.9977 0 2.6135-.301 4.9765-.904 7.0905-.605 2.115-1.537 4.024-2.803 5.729 1.133.998 2.369 1.793 3.707 2.382 1.341.59 2.775.967 4.303 1.13l-2.943 7.023c-2.227-.218-4.25-.767-6.07-1.647-1.822-.881-3.41-2.074-4.77-3.58" fill="#1e8d44"/></g><g fill="#000"><path d="m193.121 89.1455h.586667v22.2933h-.586667z"/><path d="m215.035 97.8883 2.807 11.7937h2.187l3.268-19.0147h-2.201l-1.146 7.6163-1.146 7.9194h-.145l-2.662-11.1873h-2.082l-2.662 11.1873h-.145l-1.146-7.9194-1.147-7.6163h-2.2l3.268 19.0147h2.187l2.807-11.7937z"/><path d="m238.609 101.71v-3.0706c0-5.2576-2.649-8.3674-6.971-8.3674s-6.971 3.1098-6.971 8.3674v3.0706c0 5.257 2.649 8.367 6.971 8.367s6.971-3.11 6.971-8.367zm-6.971 6.167c-2.886 0-4.625-2.214-4.625-6.18v-3.0444c0-3.9663 1.739-6.1801 4.625-6.1801s4.625 2.2138 4.625 6.1801v3.0444c0 3.966-1.739 6.18-4.625 6.18z"/><path d="m249.045 102.105 3.545 7.577h2.622l-3.874-8.051c2.161-.712 3.544-2.7544 3.544-5.2449 0-3.5314-2.358-5.7188-6.127-5.7188h-6.378v19.0147h2.293v-7.577zm-4.375-9.3689h3.874c2.543 0 3.993 1.344 3.993 3.7027 0 2.3719-1.476 3.7032-4.098 3.7032h-3.769z"/><path d="m261.787 109.682v-6.47l1.977-2.346 6.404 8.816h2.886l-7.722-10.6077 7.036-8.407h-2.714l-7.696 9.4607h-.171v-9.4607h-2.279v19.0147z"/><path d="m275.175 104.622c.198 3.373 2.767 5.455 6.694 5.455 3.98 0 6.549-2.174 6.549-5.587 0-2.859-1.555-4.467-5.244-5.3762l-1.661-.4217c-2.477-.6193-3.531-1.568-3.531-3.2152 0-1.937 1.462-3.0966 3.9-3.0966 2.24 0 3.69 1.1596 3.927 3.123h2.266c-.158-3.1625-2.622-5.2313-6.206-5.2313-3.795 0-6.233 2.0951-6.233 5.3367 0 2.754 1.595 4.4273 5.126 5.3233l1.634.409c2.57.632 3.677 1.621 3.677 3.268 0 2.042-1.661 3.36-4.191 3.36s-4.203-1.265-4.44-3.347z"/><path d="m304.692 109.682v-19.0147h-2.306v8.2357h-8.038v-8.2357h-2.306v19.0147h2.306v-8.644h8.038v8.644z"/><path d="m322.02 101.71v-3.0706c0-5.2576-2.649-8.3674-6.971-8.3674s-6.971 3.1098-6.971 8.3674v3.0706c0 5.257 2.649 8.367 6.971 8.367s6.971-3.11 6.971-8.367zm-6.971 6.167c-2.886 0-4.625-2.214-4.625-6.18v-3.0444c0-3.9663 1.739-6.1801 4.625-6.1801s4.625 2.2138 4.625 6.1801v3.0444c0 3.966-1.739 6.18-4.625 6.18z"/><path d="m325.999 90.6673v19.0147h2.332v-6.826h3.94c3.716 0 6.154-2.411 6.154-6.0877 0-3.6896-2.411-6.101-6.101-6.101zm2.332 2.0688h3.413c2.767 0 4.322 1.4363 4.322 4.0322 0 2.5827-1.555 4.0187-4.322 4.0187h-3.413z"/></g></svg>

<svg width="371" height="200" viewBox="0 0 371 200" fill="none" xmlns="http://www.w3.org/2000/svg">
<rect width="371" height="200" fill="#F0F0F0"/>
<g clip-path="url(#clip0)">
<path d="M49.9285 78.9146H40.3062V118.274H49.9285V78.9146Z" fill="#2B6CAD"/>
<path d="M56.2464 89.0126V118.274H65.047V101.043C65.047 98.9393 65.4219 97.4558 66.1718 96.5931C66.9218 95.732 68.1794 95.2998 69.9449 95.2998C71.4447 95.2998 72.5399 95.7634 73.2335 96.689C73.9272 97.6146 74.2725 99.0666 74.2725 101.043V118.274H83.0746V100.608C83.0746 96.4533 82.3012 93.367 80.753 91.354C79.2063 89.3394 76.8487 88.3321 73.6788 88.3321C71.9056 88.3321 70.3057 88.6134 68.8809 89.176C67.4576 89.7386 66.1797 90.5918 65.047 91.7343V89.0126H56.2464Z" fill="#2B6CAD"/>
<path d="M89.5113 95.083V118.274H98.3135V95.083H103.775V89.7197H98.3135V88.604C98.3135 87.4066 98.5712 86.6083 99.0915 86.2091C99.6102 85.81 100.68 85.6104 102.304 85.6104H103.775V79.485C102.929 79.2854 102.116 79.1408 101.337 79.0497C100.557 78.9586 99.7899 78.9146 99.0399 78.9146C95.6185 78.9146 93.1562 79.5997 91.6533 80.9684C90.1503 82.3387 89.3989 84.5764 89.3989 87.6784C89.3989 87.8968 89.402 88.1404 89.4129 88.4138C89.4223 88.6857 89.4551 89.121 89.5113 89.7197H85.04V95.083H89.5113Z" fill="#2B6CAD"/>
<path fill-rule="evenodd" clip-rule="evenodd" d="M108.287 114.952C111.165 117.803 114.962 119.226 119.68 119.226C124.395 119.226 128.202 117.798 131.097 114.94C133.994 112.081 135.442 108.321 135.442 103.657C135.442 98.9738 134.003 95.2056 131.125 92.3471C128.249 89.4887 124.432 88.0603 119.68 88.0603C114.98 88.0603 111.189 89.4934 108.303 92.3597C105.416 95.2276 103.972 98.9927 103.972 103.657C103.972 108.338 105.411 112.105 108.287 114.952ZM114.798 110.013C113.58 108.443 112.971 106.325 112.971 103.657C112.971 101.026 113.585 98.911 114.812 97.3144C116.038 95.7178 117.66 94.9196 119.68 94.9196C121.734 94.9196 123.372 95.7084 124.589 97.2877C125.806 98.8654 126.413 100.988 126.413 103.657C126.413 106.306 125.801 108.42 124.575 109.999C123.348 111.578 121.717 112.367 119.68 112.367C117.641 112.367 116.015 111.583 114.798 110.013Z" fill="#2B6CAD"/>
<path d="M158.78 110.978C161.898 110.978 164.331 109.895 166.079 107.727C167.826 105.558 168.699 102.531 168.699 98.6485C168.699 94.7655 167.821 91.7295 166.063 89.5436C164.306 87.3562 161.88 86.2625 158.78 86.2625C155.701 86.2625 153.277 87.3656 151.512 89.5703C149.745 91.775 148.862 94.8016 148.862 98.6485C148.862 102.495 149.74 105.512 151.496 107.698C153.254 109.886 155.682 110.978 158.78 110.978ZM169.18 116.776C167.726 117.575 166.121 118.183 164.365 118.601C162.609 119.017 160.748 119.226 158.785 119.226C152.76 119.226 147.941 117.358 144.324 113.619C140.709 109.881 138.899 104.89 138.899 98.6485C138.899 95.2369 139.451 92.1836 140.557 89.4886C141.662 86.7936 143.308 84.4931 145.499 82.5885C147.255 81.0642 149.242 79.9202 151.46 79.1581C153.679 78.3959 156.118 78.0156 158.78 78.0156C164.784 78.0156 169.599 79.8935 173.224 83.6508C176.848 87.4065 178.66 92.4052 178.66 98.6485C178.66 101.262 178.359 103.625 177.756 105.739C177.151 107.854 176.219 109.763 174.953 111.468C176.086 112.466 177.322 113.261 178.66 113.85C180.001 114.44 181.435 114.817 182.963 114.98L180.02 122.003C177.793 121.785 175.77 121.236 173.95 120.356C172.128 119.475 170.54 118.282 169.18 116.776" fill="#1E8D44"/>
</g>
<rect x="193.121" y="89.1455" width="0.586667" height="22.2933" fill="black"/>
<path d="M215.035 97.8883L217.842 109.682H220.029L223.297 90.6673H221.096L219.95 98.2836L218.804 106.203H218.659L215.997 95.0157H213.915L211.253 106.203H211.108L209.962 98.2836L208.815 90.6673H206.615L209.883 109.682H212.07L214.877 97.8883H215.035Z" fill="black"/>
<path d="M238.609 101.71V98.6394C238.609 93.3818 235.96 90.272 231.638 90.272C227.316 90.272 224.667 93.3818 224.667 98.6394V101.71C224.667 106.967 227.316 110.077 231.638 110.077C235.96 110.077 238.609 106.967 238.609 101.71ZM231.638 107.877C228.752 107.877 227.013 105.663 227.013 101.697V98.6526C227.013 94.6863 228.752 92.4725 231.638 92.4725C234.524 92.4725 236.263 94.6863 236.263 98.6526V101.697C236.263 105.663 234.524 107.877 231.638 107.877Z" fill="black"/>
<path d="M249.045 102.105L252.59 109.682H255.212L251.338 101.631C253.499 100.919 254.882 98.8766 254.882 96.3861C254.882 92.8547 252.524 90.6673 248.755 90.6673H242.377V109.682H244.67V102.105H249.045ZM244.67 92.7361H248.544C251.087 92.7361 252.537 94.0801 252.537 96.4388C252.537 98.8107 251.061 100.142 248.439 100.142H244.67V92.7361Z" fill="black"/>
<path d="M261.787 109.682V103.212L263.764 100.866L270.168 109.682H273.054L265.332 99.0743L272.368 90.6673H269.654L261.958 100.128H261.787V90.6673H259.508V109.682H261.787Z" fill="black"/>
<path d="M275.175 104.622C275.373 107.995 277.942 110.077 281.869 110.077C285.849 110.077 288.418 107.903 288.418 104.49C288.418 101.631 286.863 100.023 283.174 99.1138L281.513 98.6921C279.036 98.0728 277.982 97.1241 277.982 95.4769C277.982 93.5399 279.444 92.3803 281.882 92.3803C284.122 92.3803 285.572 93.5399 285.809 95.5033H288.075C287.917 92.3408 285.453 90.272 281.869 90.272C278.074 90.272 275.636 92.3671 275.636 95.6087C275.636 98.3627 277.231 100.036 280.762 100.932L282.396 101.341C284.966 101.973 286.073 102.962 286.073 104.609C286.073 106.651 284.412 107.969 281.882 107.969C279.352 107.969 277.679 106.704 277.442 104.622H275.175Z" fill="black"/>
<path d="M304.692 109.682V90.6673H302.386V98.903H294.348V90.6673H292.042V109.682H294.348V101.038H302.386V109.682H304.692Z" fill="black"/>
<path d="M322.02 101.71V98.6394C322.02 93.3818 319.371 90.272 315.049 90.272C310.727 90.272 308.078 93.3818 308.078 98.6394V101.71C308.078 106.967 310.727 110.077 315.049 110.077C319.371 110.077 322.02 106.967 322.02 101.71ZM315.049 107.877C312.163 107.877 310.424 105.663 310.424 101.697V98.6526C310.424 94.6863 312.163 92.4725 315.049 92.4725C317.935 92.4725 319.674 94.6863 319.674 98.6526V101.697C319.674 105.663 317.935 107.877 315.049 107.877Z" fill="black"/>
<path d="M325.999 90.6673V109.682H328.331V102.856H332.271C335.987 102.856 338.425 100.445 338.425 96.7683C338.425 93.0787 336.014 90.6673 332.324 90.6673H325.999ZM328.331 92.7361H331.744C334.511 92.7361 336.066 94.1724 336.066 96.7683C336.066 99.351 334.511 100.787 331.744 100.787H328.331V92.7361Z" fill="black"/>
<defs>
<clipPath id="clip0">
<rect width="143.733" height="44" fill="white" transform="translate(40 78)"/>
</clipPath>
</defs>
</svg>
